symbols/web/euro_symbol/materialsymbolsoutlined/euro_symbol_wght700_24px.svg

<svg xmlns="http://www.w3.org/2000/svg" height="24" width="24"><path d="M14.725 21.375q-3.1 0-5.45-1.762-2.35-1.763-3.4-4.413h-3.15v-2.4h2.6q-.05-.2-.05-.413v-.737q0-.175.05-.45h-2.6V8.8H5.85Q6.9 6.125 9.262 4.375q2.363-1.75 5.463-1.75 1.825 0 3.5.7t3.05 1.975l-2.25 2.275q-.95-.8-2.05-1.25-1.1-.45-2.25-.45-1.725 0-3.05.838Q10.35 7.55 9.55 8.8h5.175v2.4H8.75q-.05.2-.05.4v.8q0 .2.05.4h5.975v2.4H9.55q.8 1.25 2.125 2.088 1.325.837 3.05.837 1.15 0 2.263-.45 1.112-.45 1.987-1.25l2.3 2.275q-1.375 1.275-3.05 1.975-1.675.7-3.5.7Z"/></svg>

<svg xmlns="http://www.w3.org/2000/svg" height="24" width="24"><path d="M14.725 21.375Q11.625 21.375 9.275 19.613Q6.925 17.85 5.875 15.2H2.725V12.8H5.325Q5.275 12.6 5.275 12.387Q5.275 12.175 5.275 12Q5.275 11.825 5.275 11.65Q5.275 11.475 5.325 11.2H2.725V8.8H5.85Q6.9 6.125 9.262 4.375Q11.625 2.625 14.725 2.625Q16.55 2.625 18.225 3.325Q19.9 4.025 21.275 5.3L19.025 7.575Q18.075 6.775 16.975 6.325Q15.875 5.875 14.725 5.875Q13 5.875 11.675 6.713Q10.35 7.55 9.55 8.8H14.725V11.2H8.75Q8.7 11.4 8.7 11.6Q8.7 11.8 8.7 12Q8.7 12.2 8.7 12.4Q8.7 12.6 8.75 12.8H14.725V15.2H9.55Q10.35 16.45 11.675 17.288Q13 18.125 14.725 18.125Q15.875 18.125 16.988 17.675Q18.1 17.225 18.975 16.425L21.275 18.7Q19.9 19.975 18.225 20.675Q16.55 21.375 14.725 21.375Z"/></svg>
